X: 1357
T: The First of March
R:Reel
N:Collected by McFadden
B:O'Neill's 1357
Z:Transcribed by Trish O'Neil
M:C|
L:1/8
K:G
{a}ge"Segno"|d2BG AGEF|G2dG Bdge|d2BG AGEA|1Bdgd efge:|2Bdgde2||
(ef)|g2T(gf) gbag|fdad fdfa|g2T(gf) gbaf|gfed Beef|
g2T(gf) gbag|fdad fdfa|(3gab ag (3fga ed|T(BA) (3Bcd efg"D.S."e|]


